img/left-quote.svg

<svg width="124" height="124" viewBox="0 0 124 124" fill="none" xmlns="http://www.w3.org/2000/svg">
<g clip-path="url(#clip0)">
<path d="M98.0375 50.7625C97.8438 48.05 98.0375 40.6875 105.013 30.6125C105.594 29.8375 105.4 28.8687 104.819 28.0937C101.913 25.1875 100.169 23.4437 99.0063 22.0875C97.4563 20.3437 96.6813 19.5688 95.5188 18.6C94.7438 18.0187 93.775 18.0187 93 18.6C80.7938 29.2563 67.0375 51.3438 69.1688 78.275C70.3313 94.1625 81.9563 105.594 96.6813 105.594C111.794 105.594 124.194 93.1937 124.194 78.0812C124 63.55 112.569 51.7313 98.0375 50.7625Z" fill="#CE1257" fill-opacity="0.25"/>
<path d="M29.2562 50.7625C29.0625 48.05 29.2562 40.6875 36.2312 30.6125C36.8125 29.8375 36.6187 28.8687 36.0375 28.0937C33.1312 25.1875 31.3875 23.4437 30.225 22.0875C28.675 20.3437 27.9 19.5688 26.7375 18.6C25.9625 18.0187 24.9937 18.0187 24.2187 18.6C11.8187 29.45 -1.74376 51.3438 0.193741 78.4688C1.35624 94.3562 12.9812 105.787 27.7062 105.787C42.8187 105.787 55.2187 93.3875 55.2187 78.275C55.2187 63.55 43.7875 51.7313 29.2562 50.7625Z" fill="#CE1257" fill-opacity="0.25"/>
</g>
<defs>
<clipPath id="clip0">
<rect width="124" height="124" fill="white"/>
</clipPath>
</defs>
</svg>

<svg width="124" height="124" viewBox="0 0 124 124" fill="none" xmlns="http://www.w3.org/2000/svg"><g clip-path="url(#a)" fill="#CE1257" fill-opacity=".25"><path d="M98.037 50.763c-.193-2.713 0-10.075 6.976-20.15.581-.776.387-1.744-.194-2.52-2.906-2.905-4.65-4.65-5.813-6.006-1.55-1.743-2.325-2.518-3.487-3.487-.775-.581-1.744-.581-2.519 0-12.206 10.656-25.963 32.744-23.831 59.675 1.162 15.887 12.787 27.319 27.512 27.319 15.113 0 27.513-12.4 27.513-27.513-.194-14.531-11.625-26.35-26.157-27.319zM29.256 50.763c-.194-2.713 0-10.075 6.975-20.15.581-.776.388-1.744-.194-2.52-2.906-2.905-4.65-4.65-5.812-6.006-1.55-1.743-2.325-2.518-3.488-3.487-.774-.581-1.743-.581-2.518 0C11.819 29.45-1.744 51.344.194 78.469c1.162 15.887 12.787 27.318 27.512 27.318 15.113 0 27.513-12.4 27.513-27.512 0-14.725-11.431-26.544-25.963-27.513z"/></g><defs><clipPath id="a"><path fill="#fff" d="M0 0h124v124H0z"/></clipPath></defs></svg>
